X:1
T:In the Light of God’s Wonderful Love
T:In the Light of God’s Wonderful Love
T:William Thomas Dale
T:Stephen Althea Berrie, 1912
T:Public Domain Courtesy of the Cyber Hymnal™
T:Public Domain Courtesy of the Cyber Hymnal™
C:William Thomas Dale
Z:Public Domain
Z:Courtesy of the Cyber Hymnal™
%%score ( 1 2 ) ( 3 4 )
L:1/8
Q:1/4=102
M:4/4
K:Ab
V:1 treble 
V:2 treble 
V:3 bass 
V:4 bass 
V:1
 [CE][CA] | [Ec]2 [Ec][Ec] [Ec]2 [EB][EA] | [FA]2 [DF]2 [CE]2 [CE][CE] | %3
w: 1.~I am|walk- ing each day in this|world be- low, In the|
w: 2.~When the|sha- dows of sin, with its|dark des- pair, Would my|
w: 3.~When my|la- bors shall cease and my|soul’s set free, I shall|
 [EA]2 [EA]>[EA] [Ec]2 [Ed][=DA] | [EB]6 [CE][CA] | [Ec]2 [Ec][Ec] [Ec]2 [EB][EA] | %6
w: glo- ry that shines from a-|bove; O ’tis|pre- cious to know as I|
w: vi- sions of glo- ry sub-|due; Lo, from|Hea- ven a- bove there shines|
w: go to the land of pure|love; With my|Sav- ior I’ll rest, and I’ll|
 [EG]2 [DF]2 [CE]2 [CE][CE] [CA]2 [CA][CA] [Ec]2 [DB][DB] | [CA]6 ||"^Refrain" [Ec][Ed] | %9
w: on- ward go, In the light of God’s won- der- ful|love.||
w: on my soul The full light of God’s won- der- ful|love.|It is|
w: hap- py be, In the light of God’s won- der- ful|love.||
 [Ae]2 [Ae][Ad] [Ec]2 [Ec][DB] | [CA]6 [CA]2 | [Ec]2 [Ec][Ec] [Ec]2 [EB][EA] | [EB]6 [CE]2 | %13
w: ||||
w: won- der- ful, won- der- ful|love, That|shines on my path from a-|bove; It|
w: ||||
 [Ec]2 [Ec][Ec] [Ec]2 [EB][EA] | [FA]2 [FA][DF] [CE]2 [CE]2 | [EA]2 [EA][EA] [Ec]2 [DB][DB] | A6 |] %17
w: ||||
w: bright- ens the way, turn- ing|night in- to day, The|light of God’s won- der- ful|love.|
w: ||||
V:2
 x2 | x8 | x8 | x8 | x8 | x8 | x16 | x6 || x2 | x8 | x8 | x8 | x8 | x8 | x8 | x8 | (C2 DD C2) |] %17
V:3
 [A,,A,][A,,A,] | [A,,A,]2 [A,,A,][A,,A,] [A,,A,]2 [B,,G,][C,A,] | %2
 [D,A,]2 [D,A,]2 [A,,A,]2 [A,,A,][A,,A,] | [A,,C]2 [A,,C]>[A,,C] A,2 [G,B,][F,B,] | %4
 [E,G,]6 [A,,A,][A,,A,] | [A,,A,]2 [A,,A,][A,,A,] [A,,A,]2 [B,,G,][C,A,] | %6
 [D,A,]2 [D,A,]2 [A,,A,]2 [A,,A,][A,,A,] [A,,E,]2 [A,,E,][A,,E,] A,2 [E,G,][E,G,] | [A,,A,]6 || %8
 [A,,A,][A,,B,] | [A,C]2 [A,C][A,B,] [E,A,]2 [E,A,][E,G,] | [A,,A,]6 [A,,A,]2 | %11
 [A,,A,]2 [A,,A,][A,,A,] [A,,A,]2 [B,,G,][C,A,] | [E,G,]6 [A,,A,]2 | %13
 [A,,A,]2 [A,,A,][A,,A,] [A,,A,]2 [B,,G,][C,A,] | [D,A,]2 [D,A,][D,A,] [A,,A,]2 [A,,A,]2 | %15
 [A,C]2 [A,C][A,C] [E,A,]2 [E,G,][E,G,] | (A,2 F,F, E,2) |] %17
V:4
 x2 | x8 | x8 | x4 A,2 x2 | x8 | x8 | x12 A,2 x2 | x6 || x2 | x8 | x8 | x8 | x8 | x8 | x8 | x8 | %16
 A,,6 |] %17

